local/share/icons/dracula-icons-main/24/places/akonadi-phone-home.svg

<?xml version="1.0" encoding="UTF-8"?>
<svg xmlns="http://www.w3.org/2000/svg" xmlns:xlink="http://www.w3.org/1999/xlink" width="24" height="24" viewBox="0 0 24 24">
<path fill-rule="nonzero" fill="rgb(100%, 100%, 100%)" fill-opacity="1" d="M 11.5 5.414062 C 11.246094 5.414062 10.988281 5.511719 10.792969 5.707031 L 5.136719 11.363281 C 4.746094 11.753906 4.746094 12.386719 5.136719 12.777344 C 5.375 13.015625 5.695312 13.089844 6 13.042969 L 6 18 L 8 18 L 8 11.328125 L 11.5 7.828125 L 15 11.328125 L 15 18 L 17 18 L 17 13.042969 C 17.304688 13.089844 17.625 13.015625 17.863281 12.777344 C 18.253906 12.386719 18.253906 11.753906 17.863281 11.363281 L 12.207031 5.707031 C 12.011719 5.511719 11.753906 5.414062 11.5 5.414062 Z M 11.5 13 C 10.667969 13 10 13.667969 10 14.5 L 10 18 L 13 18 L 13 14.5 C 13 13.667969 12.332031 13 11.5 13 Z M 11.5 13 "/>
</svg>

<svg width="24" height="24" version="1.1" viewBox="0 0 24 24" xmlns="http://www.w3.org/2000/svg">
 <defs>
  <style id="current-color-scheme" type="text/css">.ColorScheme-Text { color:#FFFFFF; } .ColorScheme-Highlight { color:#5294e2; }</style>
 </defs>
 <path class="ColorScheme-Text" d="m11.5 5.4141c-0.25562 0-0.51116 0.0971-0.70703 0.29297l-5.6562 5.6562c-0.39174 0.39174-0.39174 1.0223 0 1.4141 0.23669 0.23669 0.55752 0.313 0.86328 0.26367v4.959h2v-6.6719l3.5-3.5 3.5 3.5v6.6719h2v-4.959c0.30576 0.04933 0.62659-0.02698 0.86328-0.26367 0.39174-0.39174 0.39174-1.0223 0-1.4141l-5.6562-5.6562c-0.19587-0.19587-0.45141-0.29297-0.70703-0.29297zm0 7.5859c-0.831 0-1.5 0.669-1.5 1.5v3.5h3v-3.5c0-0.831-0.669-1.5-1.5-1.5z" fill="currentColor"/>
</svg>
